!!!OTL: 542. Nur einmal lebt man auf der Welt.
!!!ODT: 1845
!!!ARE: Europa, Mitteleuropa, Deutschland, Hessen, Odenwald
!!!SCT: E0542
!!!TXL: @@DE
!!!YEM: Copyright 1995, estate of Helmut Schaffrath.
**kern	**text
*ICvox	*
*M6/8	*
*k[f#c#g#]	*
*A:	*
{8e	Mit
=1	=1
8c#L	ſanf-
8eJ	.
8a	-tem
8c#	Kum-
8e	-mer
8a	und
=2	=2
(4cc#	Sor-
8ee)	.
4b}	-gen
{8e	er-
=3	=3
8eL	-wach
8g#J	.
8b/	ich
8bL	al-
8cc#J	.
8dd	-le
=4	=4
(4cc#	Mor-
8ee)	.
4cc#}	-gen,
{16eL	weil
16g#J	.
=5	=5
4a	ich
8cc#	die
4cc#	vor-
8cc#	-ge
=6	=6
[4ee	Nacht,
8ee]	ja
8cc#L	Nacht
8ff#J}	.
{8ee	mit
=7	=7
4dd	Freuden
8dd	hab
8bL	ʒu-
8ff#J	.
16eeL	-ge-
16ddJ	.
=8	=8
[4.cc#	-bracht.
8cc#]	.
8r}	.
{16eL	weil
16g#J	.
=9	=9
4a	ich
8cc#	die
4cc#	vor-
8cc#	-ge
=10	=10
[4ee	Nacht,
8ee]	ja
8cc#L	Nacht
8ff#J}	.
{8ee	mit
=11	=11
4dd	Freuden
8dd	hab
8bL	ʒu-
8ff#J	.
16eeL	-ge-
16ddJ	.
=12	=12
[4.cc#	-bracht.
8cc#]	.
8r}	.
==	==
!!!AGN: Liebes - Lied
!!!ONB: ESAC (Essen Associative Code) Database: ERK1
!!!AMT: compound duple
!!!AIN: vox
!!!EED: Helmut Schaffrath
!!!EEV: 1.0
!!!GTL: Liebeslieder [Neuere (aus dem 18. bis 19. Jahrh.) - Liebeslust]
!!!URL-scan: https://rosdok.uni-rostock.de/mcrviewer/recordIdentifier/rosdok_ppn745177662/iview2/phys_0371.iview2?x=-128.77276441889308&y=408.5692075949628&scale=0.5870222003877485&rotation=0&layout=singlePageLayout
!!!ENC: Anna Maria Matuszewska
!!!EEV: 2024/10/12
*-	*-
